icons/1_Primary/Second Life.svg

<svg xmlns="http://www.w3.org/2000/svg" viewBox="0 0 1024 1024">
   <circle cx="512" cy="512" r="512" style="fill:#00bfff"/>
   <path d="M442.32 483.19s-11.24-63.71-13.12-78.7c-1.87-14.99-18.74-89.94-20.61-103.06-1.87-13.12-7.5-31.86-24.36-33.73-16.86-1.87-24.36 1.87-29.98 16.86s28.11 151.78 33.73 166.77c5.62 14.99 16.86 58.09 20.61 63.71 3.75 5.62 11.24 14.99 24.36 11.24s14.99-14.99 9.37-43.1Zm44.97-254.84c16.86-1.69 26.23 9.37 28.11 16.86 1.87 7.5 11.24 131.17 11.24 164.9s3.75 82.45-1.87 91.82c-5.62 9.37-7.5 11.24-18.74 11.24s-16.86-11.24-18.74-24.36c-2.19-15.29-5.62-29.98-9.37-63.71-.66-5.88-14.99-155.53-14.99-168.65s5.62-26.23 24.36-28.11Zm119.93 33.73c20.61-1.37 24.36 16.86 24.36 28.11 0 7.5-7.5 65.58-9.37 78.7-1.87 13.12-13.3 76.41-14.99 89.94-1.87 14.99-7.8 43.68-11.24 50.59-1.87 3.75-7.5 11.24-16.86 9.37s-14.99-1.87-14.99-18.74 7.5-103.06 7.5-112.43 7.5-69.33 9.37-76.83-1.87-46.85 26.23-48.72Zm93.69 71.21c14.99 1.26 20.61 13.12 18.74 20.61-1.87 7.5-11.24 44.97-14.99 58.09-3.75 13.12-26.23 88.07-28.11 91.82s-9.37 26.23-11.24 29.98c-1.67 3.35-9.37 5.62-14.99 3.75s-13.12-3.75-9.37-22.49 11.24-56.22 13.12-63.71c1.87-7.5 14.99-69.33 20.61-82.45 5.62-13.12 3.75-37.48 26.23-35.6Zm-396.9 139.43c-.05-.58.02-1.17.22-1.72s.51-1.05.92-1.46c.41-.41.91-.73 1.46-.94.55-.2 1.13-.28 1.71-.23 17.8 1.71 35.73 7.8 45.91 35.43 13.12 35.6-.66 141.29 19.68 171.46 30.92 45.91 66.52 72.14 141.47 72.14 95.57 0 137.73-34.67 137.73-98.38s-65.58-65.58-78.7-63.71c-13.12 1.87-25.58 7.5-24.36 29.98 1.18 21.77 33.43 18.4 35.6 5.62 1.61-9.37-5.62-13.12 1.87-16.86 7.5-3.75 22.49 3.75 22.49 22.49s-3.75 76.83-74.95 78.7c-71.21 1.87-74.41-59.96-74.95-69.33-.94-15.93 11.24-43.1 5.62-44.97s-13.9-4.65-35.6 14.99c-19.68 17.8-32.79 23.42-39.35 16.86-7.5-7.5-11.24-16.86-3.75-24.36 7.5-7.5 50.59-54.34 114.3-61.84 63.71-7.5 133.74 6.78 172.39 48.72 44.04 47.78 25.52 168.5-69.33 196.75C462.92 824.22 328 766.13 315.82 652.77c-6.46-60.34-5.53-103.36-11.81-180.06Z" style="fill:#fff"/>
</svg>

<svg width="1024" height="1024" viewBox="0 0 1024 1024" fill="none" xmlns="http://www.w3.org/2000/svg">
<g clip-path="url(#clip0_2_3423)">
<path d="M512 1024C794.77 1024 1024 794.77 1024 512C1024 229.23 794.77 0 512 0C229.23 0 0 229.23 0 512C0 794.77 229.23 1024 512 1024Z" fill="#9ABEFF"/>
<path d="M442.32 483.19C442.32 483.19 431.08 419.48 429.2 404.49C427.33 389.5 410.46 314.55 408.59 301.43C406.72 288.31 401.09 269.57 384.23 267.7C367.37 265.83 359.87 269.57 354.25 284.56C348.63 299.55 382.36 436.34 387.98 451.33C393.6 466.32 404.84 509.42 408.59 515.04C412.34 520.66 419.83 530.03 432.95 526.28C446.07 522.53 447.94 511.29 442.32 483.18V483.19ZM487.29 228.35C504.15 226.66 513.52 237.72 515.4 245.21C517.27 252.71 526.64 376.38 526.64 410.11C526.64 443.84 530.39 492.56 524.77 501.93C519.15 511.3 517.27 513.17 506.03 513.17C494.79 513.17 489.17 501.93 487.29 488.81C485.1 473.52 481.67 458.83 477.92 425.1C477.26 419.22 462.93 269.57 462.93 256.45C462.93 243.33 468.55 230.22 487.29 228.34V228.35ZM607.22 262.08C627.83 260.71 631.58 278.94 631.58 290.19C631.58 297.69 624.08 355.77 622.21 368.89C620.34 382.01 608.91 445.3 607.22 458.83C605.35 473.82 599.42 502.51 595.98 509.42C594.11 513.17 588.48 520.66 579.12 518.79C569.76 516.92 564.13 516.92 564.13 500.05C564.13 483.18 571.63 396.99 571.63 387.62C571.63 378.25 579.13 318.29 581 310.79C582.87 303.29 579.13 263.94 607.23 262.07L607.22 262.08ZM700.91 333.29C715.9 334.55 721.52 346.41 719.65 353.9C717.78 361.4 708.41 398.87 704.66 411.99C700.91 425.11 678.43 500.06 676.55 503.81C674.67 507.56 667.18 530.04 665.31 533.79C663.64 537.14 655.94 539.41 650.32 537.54C644.7 535.67 637.2 533.79 640.95 515.05C644.7 496.31 652.19 458.83 654.07 451.34C655.94 443.84 669.06 382.01 674.68 368.89C680.3 355.77 678.43 331.41 700.91 333.29ZM304.01 472.72C303.96 472.14 304.03 471.55 304.23 471C304.43 470.45 304.74 469.95 305.15 469.54C305.56 469.13 306.06 468.81 306.61 468.6C307.16 468.4 307.74 468.32 308.32 468.37C326.12 470.08 344.05 476.17 354.23 503.8C367.35 539.4 353.57 645.09 373.91 675.26C404.83 721.17 440.43 747.4 515.38 747.4C610.95 747.4 653.11 712.73 653.11 649.02C653.11 585.31 587.53 583.44 574.41 585.31C561.29 587.18 548.83 592.81 550.05 615.29C551.23 637.06 583.48 633.69 585.65 620.91C587.26 611.54 580.03 607.79 587.52 604.05C595.02 600.3 610.01 607.8 610.01 626.54C610.01 645.28 606.26 703.37 535.06 705.24C463.85 707.11 460.65 645.28 460.11 635.91C459.17 619.98 471.35 592.81 465.73 590.94C460.11 589.07 451.83 586.29 430.13 605.93C410.45 623.73 397.34 629.35 390.78 622.79C383.28 615.29 379.54 605.93 387.03 598.43C394.53 590.93 437.62 544.09 501.33 536.59C565.04 529.09 635.07 543.37 673.72 585.31C717.76 633.09 699.24 753.81 604.39 782.06C462.92 824.22 328 766.13 315.82 652.77C309.36 592.43 310.29 549.41 304.01 472.71V472.72Z" fill="white"/>
</g>
<defs>
<clipPath id="clip0_2_3423">
<rect width="1024" height="1024" fill="white"/>
</clipPath>
</defs>
</svg>
